lib/flags/s/HTI.svg

<svg xmlns="http://www.w3.org/2000/svg" fill="none" viewBox="0 0 16 12"><mask id="HTI_svg__a" width="16" height="12" x="0" y="0" mask-type="alpha" maskUnits="userSpaceOnUse"><path fill="#fff" d="M0 0H16V12H0z"/></mask><g mask="url(#HTI_svg__a)"><path fill="#2E42A5" fill-rule="evenodd" d="M0 0V12H16V0H0Z" clip-rule="evenodd"/><mask id="HTI_svg__b" width="16" height="12" x="0" y="0" mask-type="alpha" maskUnits="userSpaceOnUse"><path fill="#fff" fill-rule="evenodd" d="M0 0V12H16V0H0Z" clip-rule="evenodd"/></mask><g mask="url(#HTI_svg__b)"><path fill="#E31D1C" fill-rule="evenodd" d="M0 6V12H16V6H0Z" clip-rule="evenodd"/><path fill="#fff" d="M3 2H13V10H3z"/><mask id="HTI_svg__c" width="10" height="8" x="3" y="2" mask-type="alpha" maskUnits="userSpaceOnUse"><path fill="#fff" d="M3 2H13V10H3z"/></mask><g mask="url(#HTI_svg__c)"><path fill="#279E19" fill-rule="evenodd" d="M3 8.38494C3 8.38494 5.40028 7.32127 8 7.38618C10.5997 7.45109 13 8.63462 13 8.63462V10H3L3 8.38494Z" clip-rule="evenodd"/><path fill="#026A16" fill-rule="evenodd" d="M5.71993 3.50928C5.69293 3.54129 5.69187 3.58579 5.71422 3.6212C5.8745 3.87517 6.57988 4.87801 7.72467 4.87801C8.82702 4.87801 9.64815 3.94815 9.8814 3.65244C9.92002 3.60349 9.90851 3.53451 9.85526 3.50207C9.68532 3.39851 9.30186 3.19995 8.86026 3.19995C8.26288 3.19995 7.72467 3.4551 7.72467 3.4551C7.72467 3.4551 6.92391 3.19995 6.4139 3.19995C6.02792 3.19995 5.80536 3.40806 5.71993 3.50928Z" clip-rule="evenodd"/><path fill="#C51918" fill-rule="evenodd" d="M7.89464 7.40706L6.99853 6.84032C6.47495 7.08258 6.21317 7.56231 6.21317 8.27949L6.90712 9.41881H8.32444H9.02378L9.52468 8.27949C9.52468 8.27949 9.71975 6.80628 9.02378 6.5686L7.89464 7.40706Z" clip-rule="evenodd"/><path fill="#0A328C" fill-rule="evenodd" d="M5.93405 5.81604C5.93405 5.81604 4.58141 6.28563 4.58141 8.01795L6.38557 8.37477C6.38557 8.37477 6.36443 7.38226 6.90372 6.9167L5.93405 5.81604Z" clip-rule="evenodd"/><path fill="#FFD018" d="M5.26796 5.26384 5.4833 5.04626 7.99999 7.52336 7.78465 7.74094 5.26796 5.26384zM4.48126 5.84548 4.65823 5.59314 7.8946 8.05593 7.71763 8.30827 4.48126 5.84548zM3.9431 6.81096 4.08216 6.53406 7.75904 8.53766 7.61998 8.81456 3.9431 6.81096z"/><path fill="#FECA00" fill-rule="evenodd" d="M4.59074 8.00439L7.01127 8.32154L6.875 8.71741H6.49125L6.75261 8.94108L7.34197 9.10271V8.71741H7.85813V9.536H6.75261L6.32859 8.94108C6.32859 8.94108 5.97247 9.35246 5.62492 9.35246C5.27736 9.35246 4.93471 9.21885 4.93471 8.7702C4.93471 8.32154 4.93471 8.45806 4.93471 8.45806L4.59074 8.32154V8.00439Z" clip-rule="evenodd"/><path fill="#0A328C" fill-rule="evenodd" d="M9.80822 5.72278C9.80822 5.72278 11.3944 6.28569 11.3944 8.01801L9.57419 8.37439C9.57419 8.37439 9.49143 7.09344 8.92967 6.62789L9.80822 5.72278Z" clip-rule="evenodd"/><path fill="#FFD018" d="M10.6792 5.26384 10.4549 5.04626 7.74335 7.32275 7.96766 7.54032 10.6792 5.26384zM11.4987 5.84548 11.3144 5.59314 7.94314 8.05593V8.51761L11.4987 5.84548z"/><path fill="#FFD018" d="M12.0583 6.81145L11.9154 6.53357L7.85703 8.50532L8 8.7832L12.0583 6.81145Z"/><path fill="#FECA00" fill-rule="evenodd" d="M11.3847 8.00439L8.86328 8.32154L9.00523 8.71741H9.40497L9.13272 8.94108L8.5188 9.10271V8.71741H7.98114V9.536H9.13272L9.5744 8.94108C9.5744 8.94108 9.94536 9.35246 10.3074 9.35246C10.6694 9.35246 11.0264 9.21885 11.0264 8.7702C11.0264 8.32154 11.0264 8.45806 11.0264 8.45806L11.3847 8.32154V8.00439Z" clip-rule="evenodd"/><path fill="#FECA00" fill-rule="evenodd" d="M7.69151 4.67871C7.69151 4.67871 7.52811 5.88238 7.52811 6.37225C7.52811 6.86212 7.69151 9.46606 7.69151 9.46606H8.11176C8.11176 9.46606 8.11176 6.7812 8.11176 6.37225C8.11176 5.9633 7.86517 4.67871 7.86517 4.67871H7.69151Z" clip-rule="evenodd"/></g></g></g></svg>

<svg xmlns="http://www.w3.org/2000/svg" fill="none" viewBox="0 0 16 12"><mask id="HTI_svg__a" width="16" height="12" x="0" y="0" maskUnits="userSpaceOnUse"><path fill="#fff" d="M0 0h16v12H0z"/></mask><g mask="url(#HTI_svg__a)"><path fill="#2E42A5" fill-rule="evenodd" d="M0 0v12h16V0H0z" clip-rule="evenodd"/><mask id="HTI_svg__b" width="16" height="12" x="0" y="0" maskUnits="userSpaceOnUse"><path fill="#fff" fill-rule="evenodd" d="M0 0v12h16V0H0z" clip-rule="evenodd"/></mask><g mask="url(#HTI_svg__b)"><path fill="#E31D1C" fill-rule="evenodd" d="M0 6v6h16V6H0z" clip-rule="evenodd"/><path fill="#fff" d="M3 2h10v8H3z"/><mask id="HTI_svg__c" width="10" height="8" x="3" y="2" maskUnits="userSpaceOnUse"><path fill="#fff" d="M3 2h10v8H3z"/></mask><g mask="url(#HTI_svg__c)"><path fill="#279E19" fill-rule="evenodd" d="M3 8.385s2.4-1.064 5-.999c2.6.065 5 1.249 5 1.249V10H3V8.385z" clip-rule="evenodd"/><path fill="#026A16" fill-rule="evenodd" d="M5.72 3.51a.094.094 0 00-.006.111c.16.254.866 1.257 2.01 1.257 1.103 0 1.924-.93 2.157-1.226a.1.1 0 00-.026-.15C9.685 3.4 9.302 3.2 8.86 3.2c-.597 0-1.135.255-1.135.255S6.924 3.2 6.414 3.2a.893.893 0 00-.694.31z" clip-rule="evenodd"/><path fill="#C51918" fill-rule="evenodd" d="M7.895 7.407l-.896-.567c-.524.243-.786.722-.786 1.44l.694 1.139h2.117l.5-1.14s.196-1.473-.5-1.71l-1.13.838z" clip-rule="evenodd"/><path fill="#0A328C" fill-rule="evenodd" d="M5.934 5.816s-1.353.47-1.353 2.202l1.805.357s-.022-.993.518-1.458l-.97-1.101z" clip-rule="evenodd"/><path fill="#FFD018" d="M5.268 5.264l.215-.218L8 7.523l-.215.218-2.517-2.477zm-.787.581l.177-.252 3.237 2.463-.177.252L4.48 5.845zm-.538.966l.14-.277 3.676 2.004-.139.277L3.943 6.81z"/><path fill="#FECA00" fill-rule="evenodd" d="M4.59 8.004l2.421.318-.136.395h-.384l.262.224.589.162v-.386h.516v.819H6.753l-.424-.595s-.357.411-.704.411c-.348 0-.69-.133-.69-.582v-.312l-.344-.136v-.318z" clip-rule="evenodd"/><path fill="#0A328C" fill-rule="evenodd" d="M9.808 5.723s1.586.563 1.586 2.295l-1.82.356s-.083-1.28-.644-1.746l.878-.905z" clip-rule="evenodd"/><path fill="#FFD018" d="M10.68 5.264l-.225-.218-2.712 2.277.225.217 2.711-2.276zm.819.581l-.185-.252-3.37 2.463v.462l3.555-2.673z"/><path fill="#FFD018" d="M12.058 6.811l-.143-.277-4.058 1.971.143.278 4.058-1.972z"/><path fill="#FECA00" fill-rule="evenodd" d="M11.385 8.004l-2.522.318.142.395h.4l-.272.224-.614.162v-.386H7.98v.819h1.152l.441-.595s.371.411.733.411.72-.133.72-.582v-.312l.358-.136v-.318z" clip-rule="evenodd"/><path fill="#FECA00" fill-rule="evenodd" d="M7.692 4.679s-.164 1.203-.164 1.693.164 3.094.164 3.094h.42V6.372c0-.409-.247-1.693-.247-1.693h-.173z" clip-rule="evenodd"/></g></g></g></svg>
